X:39
T:Auburne
T:6 M
S:John Moore's Book 3
Z:Transcribed by Edmund Spriggs 05/2021
%%VWML: Moore1-4495-p30-0
F:https://www.vwml.org/record/Moore3/4495/p30
N:
M:C|
L:1/4
V:1 clef=treble
V:2 clef=bass
K:F
[V:1]F2cc|A3d|(cfed)|c3c|
[V:2]F,2F,F,|F,3F,|E,D,C,B,,|F,3F,|
[V:1]GABG|{G2}A3c|dcBA|(A2G2)|]
[V:2]C,F,E,D,|F,3F,|B,A,G,F,|C,4|]
[V:1]c2cc|(d/c/d/e/)fc|cd/c/BA|(A2G)F|
[V:2]F,2F,F,|B,3F,|E,2F,2|C,2z2|
[V:1]FGAG|G2FA|ABcB|B2Ac|
[V:2]z4|z2z1F,|F,E,F,C,|E,2F,F,|
[V:1]dcfB|A2G2|F4|]
[V:2]B,A,D,B,,|C,2C,2|F,4|]

